UI/Discovery-Sharing/SVG/maps-update_solid_24px.svg

<svg width="24" height="24" viewBox="0 0 24 24" fill="none" xmlns="http://www.w3.org/2000/svg">
<path d="M22 18C22 18.7911 21.7654 19.5645 21.3259 20.2223C20.8864 20.8801 20.2616 21.3928 19.5307 21.6955C18.7998 21.9983 17.9956 22.0775 17.2196 21.9231C16.4437 21.7688 15.731 21.3878 15.1716 20.8284C14.6122 20.269 14.2312 19.5563 14.0769 18.7804C13.9225 18.0044 14.0017 17.2002 14.3045 16.4693C14.6072 15.7384 15.1199 15.1136 15.7777 14.6741C16.4355 14.2346 17.2089 14 18 14C19.0609 14 20.0783 14.4214 20.8284 15.1716C21.5786 15.9217 22 16.9391 22 18ZM12 22H4C3.46957 22 2.96086 21.7893 2.58579 21.4142C2.21071 21.0391 2 20.5304 2 20V4C2 3.46957 2.21071 2.96086 2.58579 2.58579C2.96086 2.21071 3.46957 2 4 2H20C20.5304 2 21.0391 2.21071 21.4142 2.58579C21.7893 2.96086 22 3.46957 22 4V12H20V11.79L19.79 12H15.59L13.44 9.85L14.86 8.43L17.69 11.25L19.15 9.79L14.21 4.84L10.62 8.44L9.2 7L12.2 4H4.07L12.07 12H12V14.78L4 6.78V12.22L5.66 10.56L7.08 12L4 15.06V20H8.94L12 16.94V19.79L11.79 20H12V22ZM16.21 4L20 7.79V4H16.21Z" fill="#0F1621"/>
</svg>

<svg xmlns="http://www.w3.org/2000/svg" width="24" height="24" viewBox="0 0 24 24"><rect width="24" height="24" style="fill:none"/><path d="M22,18a4,4,0,1,1-4-4A4,4,0,0,1,22,18ZM12,22H4a2,2,0,0,1-2-2V4A2,2,0,0,1,4,2H20a2,2,0,0,1,2,2v8H20v-.21l-.21.21h-4.2L13.44,9.85l1.42-1.42,2.83,2.82,1.46-1.46L14.21,4.84l-3.59,3.6L9.2,7l3-3H4.07l8,8H12v2.78l-8-8v5.44l1.66-1.66L7.08,12,4,15.06V20H8.94L12,16.94v2.85l-.21.21H12ZM16.21,4,20,7.79V4Z"/></svg>
